assets/ai/ai-psyarxiv-square.svg

<svg xmlns="http://www.w3.org/2000/svg" width="100%" height="100%" viewBox="-75.52 -43.52 599.04 599.04"><path d="M 48 32 C 21.5 32 0 53.5 0 80 L 0 432 C 0 458.5 21.5 480 48 480 L 400 480 C 426.5 480 448 458.5 448 432 L 448 80 C 448 53.5 426.5 32 400 32 L 48 32 z M 56.927734 96 L 218.95898 96 L 218.95898 250.81055 L 56.927734 250.81055 L 56.927734 96 z M 97.097656 138.27539 C 97.097656 148.95714 96.949051 158.8889 97.400391 168.66797 C 97.550841 179.04883 101.76211 187.47279 111.08984 192.28711 C 117.10773 195.29605 122.07266 196.79883 131.40039 196.79883 L 131.40039 216.81055 L 142.83398 216.81055 L 142.83398 196.79883 C 147.6483 196.79883 152.01209 196.79934 156.22461 195.44531 C 167.6586 191.83458 175.33158 184.46168 176.53516 172.125 C 177.43783 162.94773 177.13666 153.62069 177.28711 144.29297 L 177.28711 138.57812 L 167.95898 138.87695 C 166.7554 138.87695 165.85352 139.7808 165.85352 140.98438 L 165.70312 145.94727 L 165.55078 168.36523 C 165.24989 181.00279 155.923 189.27774 142.5332 188.22461 L 142.5332 138.57812 L 130.94727 138.57812 L 130.94727 188.22461 C 128.84101 188.22461 127.18617 188.22277 125.53125 187.92188 C 115.1504 186.26696 109.73672 180.85358 108.68359 170.32227 C 107.93135 163.4017 108.08209 156.47916 107.93164 149.55859 L 107.93164 139.48047 C 107.93164 139.17957 107.77942 139.02734 107.47852 139.02734 L 97.097656 138.27539 z M 56.927734 260.58984 L 218.95898 260.58984 L 218.95898 416 L 56.927734 415.84961 L 56.927734 260.58984 z M 229.04102 260.58984 L 391.07227 260.58984 L 391.07227 416 L 229.04102 415.84961 L 229.04102 260.58984 z M 290.30078 297.73047 C 288.35365 297.79466 286.43482 298.33472 284.70703 299.4043 L 284.70703 305.57422 C 288.91955 305.87511 292.68097 306.62726 294.48633 310.99023 L 304.56445 335.66406 L 286.50977 376.73438 L 296.5918 376.73438 L 309.83008 346.04297 L 311.63672 350.40625 C 314.64566 357.47726 317.35417 364.69862 320.81445 371.46875 A 11.734881 11.734881 0 0 0 337.36328 376.58398 C 337.36328 374.7786 337.36144 372.67089 337.06055 370.11328 C 332.99848 369.96284 329.84047 368.75929 328.18555 364.84766 L 317.35156 338.2207 L 334.6543 298.80469 C 326.07881 297.30022 325.02456 297.7512 322.01562 304.97266 L 312.38867 327.83789 L 310.73242 324.07812 C 308.32527 318.06023 306.07133 312.19361 303.36328 306.32617 C 300.98434 301.05111 296.04255 297.9098 291.13477 297.73242 C 290.85591 297.72235 290.57894 297.7213 290.30078 297.73047 z M 137.87109 301.8125 L 98.753906 378.99023 L 108.83203 378.99023 C 108.83203 378.99023 111.39011 375.98155 112.74414 373.12305 L 119.81641 358.83008 L 153.06445 358.83008 L 158.48047 379.44336 L 169.3125 379.44336 L 148.85156 301.8125 L 137.87109 301.8125 z M 142.08203 313.39648 L 150.95898 350.10547 L 124.02734 350.10547 L 142.08203 313.39648 z"/></svg>

<svg xmlns="http://www.w3.org/2000/svg" width="100%" height="100%" viewBox="-75.52 -43.52 599.04 599.04"><path d="M48 32C21.5 32 0 53.5 0 80v352c0 26.5 21.5 48 48 48h352c26.5 0 48-21.5 48-48V80c0-26.5-21.5-48-48-48H48zm8.928 64h162.031v154.81H56.928V96zm40.17 42.275c0 10.682-.149 20.614.302 30.393.15 10.38 4.362 18.805 13.69 23.62 6.018 3.008 10.983 4.51 20.31 4.51v20.013h11.434v-20.012c4.814 0 9.178 0 13.39-1.354 11.435-3.61 19.108-10.983 20.311-23.32.903-9.177.602-18.504.752-27.832v-5.715l-9.328.299c-1.204 0-2.105.904-2.105 2.107l-.15 4.963-.153 22.418c-.301 12.638-9.628 20.913-23.018 19.86v-49.647h-11.586v49.647c-2.106 0-3.76-.002-5.416-.303-10.38-1.655-15.794-7.068-16.847-17.6-.753-6.92-.602-13.843-.752-20.763V139.48c0-.3-.153-.453-.453-.453l-10.381-.752zM56.928 260.59h162.031V416l-162.031-.15V260.59zm172.113 0h162.031V416l-162.031-.15V260.59zm61.26 37.14a11.266 11.266 0 00-5.594 1.674v6.17c4.213.301 7.974 1.053 9.78 5.416l10.077 24.674-18.054 41.07h10.082l13.238-30.691 1.807 4.363c3.009 7.071 5.717 14.293 9.177 21.063a11.735 11.735 0 0016.55 5.115c0-1.805-.003-3.913-.303-6.47-4.063-.151-7.22-1.355-8.875-5.266l-10.834-26.627 17.302-39.416c-8.575-1.505-9.63-1.054-12.638 6.168l-9.627 22.865-1.657-3.76c-2.407-6.018-4.66-11.884-7.369-17.752-2.379-5.275-7.32-8.416-12.228-8.594-.28-.01-.556-.01-.834-.002zm-152.43 4.082L98.754 378.99h10.078s2.558-3.008 3.912-5.867l7.072-14.293h33.248l5.416 20.613h10.833l-20.461-77.63h-10.98zm4.211 11.584l8.877 36.71h-26.932l18.055-36.71z"/></svg>
